resources/svg/wallet-o.svg

<svg xmlns="http://www.w3.org/2000/svg" viewBox="0 0 15 15" fill="none"><path d="M0.5 3.5L0.5 12.5C0.5 13.0523 0.947716 13.5 1.5 13.5L13.5 13.5C14.0523 13.5 14.5 13.0523 14.5 12.5V4.5C14.5 3.94772 14.0523 3.5 13.5 3.5L3 3.5M0.5 3.5V2.5C0.5 1.94772 0.947716 1.5 1.5 1.5H9.5C10.0523 1.5 10.5 1.94772 10.5 2.5V3.5L3 3.5M0.5 3.5L3 3.5M9 9.5H12" stroke="black"/></svg>

<svg xmlns="http://www.w3.org/2000/svg" viewBox="0 0 15 15" fill="none"><path d="M.5 3.5v9a1 1 0 001 1h12a1 1 0 001-1v-8a1 1 0 00-1-1H3m-2.5 0v-1a1 1 0 011-1h8a1 1 0 011 1v1H3m-2.5 0H3m6 6h3" stroke="currentColor"/></svg>
